symbolic/22x22/apps/christmas-tree.svg

<svg xmlns="http://www.w3.org/2000/svg" width="22" height="22" version="1">
 <path style="opacity:0.2" d="M 11.090575,7.5021445 A 1.9324752,1.9466645 0 0 0 9.3262359,8.4734785 L 6.7929464,12.893904 4.2587139,17.314329 a 1.9324752,1.9466645 0 0 0 0.5906285,2.585155 c 0,0 2.4344195,1.600516 6.1506576,1.600516 3.716238,0 6.150657,-1.600516 6.150657,-1.600516 a 1.9324752,1.9466645 0 0 0 0.590629,-2.585155 L 15.207053,12.893904 12.673764,8.4734785 a 1.9324752,1.9466645 0 0 0 -1.583189,-0.971334 z"/>
 <path style="fill:#337f36" d="M 11.090575,7.0021445 A 1.9324752,1.9466645 0 0 0 9.3262359,7.9734785 L 6.7929464,12.393904 4.2587139,16.814329 a 1.9324752,1.9466645 0 0 0 0.5906285,2.585155 C 4.8493424,19.399484 7.2837619,21 11,21 c 3.716238,0 6.150657,-1.600516 6.150657,-1.600516 a 1.9324752,1.9466645 0 0 0 0.590629,-2.585155 L 15.207053,12.393904 12.673764,7.9734785 a 1.9324752,1.9466645 0 0 0 -1.583189,-0.971334 z"/>
 <path style="opacity:0.2" d="M 11.077636,5.501838 A 1.6564074,1.6685697 0 0 0 9.5653449,6.33441 l -2.171391,3.788936 -2.1721995,3.788937 a 1.6564074,1.6685697 0 0 0 0.506253,2.215847 c 0,0 2.0866455,1.37187 5.2719916,1.37187 3.185348,0 5.271993,-1.37187 5.271993,-1.37187 a 1.6564074,1.6685697 0 0 0 0.506254,-2.215847 L 14.606046,10.123346 12.434655,6.33441 A 1.6564074,1.6685697 0 0 0 11.077636,5.501838 Z"/>
 <path style="fill:#3e9d43" d="M 11.077636,5.001838 A 1.6564074,1.6685697 0 0 0 9.5653449,5.83441 l -2.171391,3.788936 -2.1721995,3.788937 a 1.6564074,1.6685697 0 0 0 0.506253,2.215847 c 0,0 2.0866455,1.37187 5.2719916,1.37187 3.185348,0 5.271993,-1.37187 5.271993,-1.37187 a 1.6564074,1.6685697 0 0 0 0.506254,-2.215847 L 14.606046,9.623346 12.434655,5.83441 A 1.6564074,1.6685697 0 0 0 11.077636,5.001838 Z"/>
 <path style="opacity:0.2" d="m 11.064696,3.5015315 a 1.3803395,1.3904748 0 0 0 -1.2602421,0.69381 L 7.9949614,7.352788 6.1847954,10.510236 a 1.3803395,1.3904748 0 0 0 0.4218775,1.846539 c 0,0 1.738871,1.143225 4.3933261,1.143225 2.654457,0 4.393327,-1.143225 4.393327,-1.143225 a 1.3803395,1.3904748 0 0 0 0.421878,-1.846539 L 14.005038,7.352788 12.195546,4.1953415 a 1.3803395,1.3904748 0 0 0 -1.13085,-0.69381 z"/>
 <path style="fill:#5dc062" d="m 11.064696,3.0015315 a 1.3803395,1.3904748 0 0 0 -1.2602421,0.69381 L 7.9949614,6.852788 6.1847954,10.010236 a 1.3803395,1.3904748 0 0 0 0.4218775,1.846539 c 0,0 1.738871,1.143225 4.3933261,1.143225 2.654457,0 4.393327,-1.143225 4.393327,-1.143225 a 1.3803395,1.3904748 0 0 0 0.421878,-1.846539 L 14.005038,6.852788 12.195546,3.6953415 a 1.3803395,1.3904748 0 0 0 -1.13085,-0.69381 z"/>
 <path style="opacity:0.2" d="m 9.9999999,11.5 a 1,1 0 0 1 -1,1 1,1 0 0 1 -1,-1 1,1 0 0 1 1,-1 1,1 0 0 1 1,1 z"/>
 <path style="opacity:0.2" d="m 10.999952,1.500091 c -0.360604,0.00534 -0.617775,0.230315 -0.738465,0.6027375 l 0.0045,-0.016795 -0.5665901,1.4645345 -1.4108258,0 c -0.00415,-6.92e-5 -0.00811,-6.92e-5 -0.012275,0 -0.228172,0.00766 -0.4339125,0.1180012 -0.5788675,0.3007831 -0.3134935,0.372713 -0.247049,0.809042 0.1510415,1.0870065 L 8.8508144,6.0754741 8.2678549,7.4508048 c -6.5e-4,0.00205 -0.00125,0.00415 -0.00185,0.00625 -0.089076,0.303075 -0.00534,0.615315 0.21875,0.828911 0.00155,0.0016 0.0035,0.00315 0.00522,0.0047 0.2692515,0.2479095 0.647566,0.2794185 0.951634,0.074219 0.0058,-0.0039 0.01154,-0.00792 0.01711,-0.01211 l 1.5412971,-1.15274 1.54129,1.15274 c 0.0056,0.00415 0.01132,0.00824 0.01711,0.01211 0.304068,0.205199 0.682383,0.17369 0.951634,-0.074219 0.0016,-0.00155 0.0035,-0.0031 0.0052,-0.0047 0.224061,-0.213596 0.307826,-0.525836 0.218749,-0.828911 l -0.0018,-0.00625 -0.582993,-1.3753307 1.002327,-1.137116 c 0.39809,-0.277965 0.464535,-0.714294 0.15104,-1.0870068 -0.144954,-0.182782 -0.350695,-0.2931232 -0.578867,-0.3007832 -0.0042,-6.91e-5 -0.0081,-6.91e-5 -0.01228,0 l -1.410807,0 -0.56659,-1.4645344 0.0045,0.016795 C 11.617727,1.730406 11.360556,1.5054294 10.999952,1.500091 Z"/>
 <path style="fill:#ae3030" d="m 10.999952,0.9996312 c -0.360604,0.00534 -0.617775,0.230315 -0.738465,0.6027375 l 0.0045,-0.016795 -0.5665901,1.4645345 -1.4108258,0 c -0.00415,-6.92e-5 -0.00811,-6.92e-5 -0.012275,0 -0.228172,0.00766 -0.4339125,0.1180012 -0.5788675,0.3007831 -0.3134935,0.372713 -0.247049,0.809042 0.1510415,1.0870065 L 8.8508144,5.5750143 8.2678549,6.950345 c -6.5e-4,0.00205 -0.00125,0.00415 -0.00185,0.00625 -0.089076,0.303075 -0.00534,0.615315 0.21875,0.828911 0.00155,0.0016 0.0035,0.00315 0.00522,0.0047 0.2692515,0.2479095 0.647566,0.2794185 0.951634,0.074219 0.0058,-0.0039 0.01154,-0.00792 0.01711,-0.01211 l 1.5412971,-1.15274 1.54129,1.15274 c 0.0056,0.00415 0.01132,0.00824 0.01711,0.01211 0.304068,0.205199 0.682383,0.17369 0.951634,-0.074219 0.0016,-0.00155 0.0035,-0.0031 0.0052,-0.0047 0.224061,-0.213596 0.307826,-0.525836 0.218749,-0.828911 l -0.0018,-0.00625 -0.582993,-1.3753307 1.002327,-1.137116 c 0.39809,-0.277965 0.464535,-0.714294 0.15104,-1.0870068 -0.144954,-0.182782 -0.350695,-0.2931232 -0.578867,-0.3007832 -0.0042,-6.91e-5 -0.0081,-6.91e-5 -0.01228,0 l -1.410807,0 -0.56659,-1.4645344 0.0045,0.016795 C 11.617727,1.2299462 11.360556,1.0049696 10.999952,0.9996312 Z"/>
 <path style="fill:#ffe15e" d="m 9.9999999,11 a 1,1 0 0 1 -1,1 1,1 0 0 1 -1,-1 1,1 0 0 1 1,-1 1,1 0 0 1 1,1 z"/>
 <path style="opacity:0.2" d="m 15,14.5 a 1,1 0 0 1 -1,1 1,1 0 0 1 -1,-1 1,1 0 0 1 1,-1 1,1 0 0 1 1,1 z"/>
 <path style="fill:#ffe15e" d="m 15,14 a 1,1 0 0 1 -1,1 1,1 0 0 1 -1,-1 1,1 0 0 1 1,-1 1,1 0 0 1 1,1 z"/>
 <path style="opacity:0.2" d="m 8.9999999,19.5 a 1,1 0 0 1 -1,1 1,1 0 0 1 -1,-1 1,1 0 0 1 1,-1 1,1 0 0 1 1,1 z"/>
 <path style="fill:#ffe15e" d="m 8.9999999,19 a 1,1 0 0 1 -1,1 1,1 0 0 1 -1,-1 1,1 0 0 1 1,-1 1,1 0 0 1 1,1 z"/>
 <path style="opacity:0.2" d="M 13,11 A 0.5,0.5 0 0 1 12.5,11.5 0.5,0.5 0 0 1 12,11 0.5,0.5 0 0 1 12.5,10.5 0.5,0.5 0 0 1 13,11 Z"/>
 <path style="fill:#ffe15e" d="M 13,10.5 A 0.5,0.5 0 0 1 12.5,11 0.5,0.5 0 0 1 12,10.5 0.5,0.5 0 0 1 12.5,10 0.5,0.5 0 0 1 13,10.5 Z"/>
 <path style="opacity:0.2" d="M 11,16 A 0.5,0.5 0 0 1 10.5,16.5 0.5,0.5 0 0 1 9.9999999,16 0.5,0.5 0 0 1 10.5,15.5 0.5,0.5 0 0 1 11,16 Z"/>
 <path style="fill:#ffe15e" d="M 11,15.5 A 0.5,0.5 0 0 1 10.5,16 0.5,0.5 0 0 1 9.9999999,15.5 0.5,0.5 0 0 1 10.5,15 0.5,0.5 0 0 1 11,15.5 Z"/>
 <path style="opacity:0.2" d="M 14,19 A 0.5,0.5 0 0 1 13.5,19.5 0.5,0.5 0 0 1 13,19 0.5,0.5 0 0 1 13.5,18.5 0.5,0.5 0 0 1 14,19 Z"/>
 <path style="fill:#ffe15e" d="M 14,18.5 A 0.5,0.5 0 0 1 13.5,19 0.5,0.5 0 0 1 13,18.5 0.5,0.5 0 0 1 13.5,18 0.5,0.5 0 0 1 14,18.5 Z"/>
 <path style="opacity:0.2" d="m 7.9999999,14 a 0.5,0.5 0 0 1 -0.5,0.5 0.5,0.5 0 0 1 -0.5,-0.5 0.5,0.5 0 0 1 0.5,-0.5 0.5,0.5 0 0 1 0.5,0.5 z"/>
 <path style="fill:#ffe15e" d="m 7.9999999,13.5 a 0.5,0.5 0 0 1 -0.5,0.5 0.5,0.5 0 0 1 -0.5,-0.5 0.5,0.5 0 0 1 0.5,-0.5 0.5,0.5 0 0 1 0.5,0.5 z"/>
 <path style="opacity:0.2" d="M 17,18 A 0.5,0.5 0 0 1 16.5,18.5 0.5,0.5 0 0 1 16,18 0.5,0.5 0 0 1 16.5,17.5 0.5,0.5 0 0 1 17,18 Z"/>
 <path style="fill:#ffe15e" d="M 17,17.5 A 0.5,0.5 0 0 1 16.5,18 0.5,0.5 0 0 1 16,17.5 0.5,0.5 0 0 1 16.5,17 0.5,0.5 0 0 1 17,17.5 Z"/>
 <path style="opacity:0.2;fill:#ffffff" d="m 11,1 c -0.360604,0.00534 -0.617591,0.22914 -0.738281,0.6015625 l 0.0039,-0.015625 -0.5664061,1.4648437 -1.4101565,0 c -0.00415,-6.92e-5 -0.00951,-6.92e-5 -0.013672,0 -0.228172,0.00766 -0.43317,0.1179994 -0.578125,0.3007813 C 7.4967795,3.5899135 7.4687482,3.8497023 7.5664,4.0820312 7.599096,4.0040302 7.634446,3.9262416 7.6972594,3.8515625 c 0.144955,-0.1827819 0.349953,-0.2931213 0.578125,-0.3007813 0.00417,-6.92e-5 0.00952,-6.92e-5 0.013672,0 l 1.4101565,0 0.5664061,-1.4648437 -0.0039,0.017578 C 10.382409,1.7310931 10.639396,1.50534 11,1.5 c 0.360604,0.00534 0.617479,0.2310929 0.738281,0.6035156 l -0.0039,-0.017578 0.566406,1.4648437 1.410157,0 c 0.0042,-6.91e-5 0.0095,-6.91e-5 0.01367,0 0.228172,0.00766 0.433171,0.1179993 0.578125,0.3007813 0.06281,0.074679 0.09816,0.1524673 0.13086,0.2304687 0.09765,-0.232329 0.06962,-0.4921178 -0.13086,-0.7304687 -0.144954,-0.182782 -0.349953,-0.2931212 -0.578125,-0.3007813 -0.0042,-6.91e-5 -0.0095,-6.91e-5 -0.01367,0 l -1.410157,0 -0.566406,-1.4648437 0.0039,0.015625 C 11.617479,1.2291398 11.360604,1.0053384 11,1 Z M 8.7070311,5.9140625 8.267578,6.9511719 c -6.5e-4,0.00205 -0.00135,0.00376 -0.00195,0.00586 -0.04839,0.1646441 -0.040593,0.3296524 0.00781,0.4824219 L 8.8515624,6.0761719 8.7070311,5.9140625 Z m 4.5859379,0 -0.144531,0.1621094 0.578124,1.3632812 c 0.04841,-0.1527695 0.0562,-0.3177778 0.0078,-0.4824219 l -0.002,-0.00586 -0.439453,-1.0371094 z"/>
</svg>

<svg xmlns="http://www.w3.org/2000/svg" width="22" height="22" version="1"><path style="opacity:.2" d="M11.09 7.502a1.932 1.947 0 0 0-1.764.971l-2.533 4.42-2.534 4.421a1.932 1.947 0 0 0 .59 2.585S7.284 21.5 11 21.5c3.716 0 6.15-1.6 6.15-1.6a1.932 1.947 0 0 0 .591-2.586l-2.534-4.42-2.533-4.42a1.932 1.947 0 0 0-1.583-.972z"/><path style="fill:#337f36" d="M11.09 7.002a1.932 1.947 0 0 0-1.764.971l-2.533 4.42-2.534 4.421a1.932 1.947 0 0 0 .59 2.585S7.284 21 11 21c3.716 0 6.15-1.6 6.15-1.6a1.932 1.947 0 0 0 .591-2.586l-2.534-4.42-2.533-4.42a1.932 1.947 0 0 0-1.583-.972z"/><path style="opacity:.2" d="M11.078 5.502a1.656 1.669 0 0 0-1.513.832l-2.171 3.79-2.172 3.788a1.656 1.669 0 0 0 .506 2.216S7.815 17.5 11 17.5s5.272-1.372 5.272-1.372a1.656 1.669 0 0 0 .506-2.216l-2.172-3.789-2.171-3.789a1.656 1.669 0 0 0-1.357-.832z"/><path style="fill:#3e9d43" d="M11.078 5.002a1.656 1.669 0 0 0-1.513.832l-2.171 3.79-2.172 3.788a1.656 1.669 0 0 0 .506 2.216S7.815 17 11 17s5.272-1.372 5.272-1.372a1.656 1.669 0 0 0 .506-2.216l-2.172-3.789-2.171-3.789a1.656 1.669 0 0 0-1.357-.832z"/><path style="opacity:.2" d="M11.065 3.502a1.38 1.39 0 0 0-1.26.693l-1.81 3.158-1.81 3.157a1.38 1.39 0 0 0 .422 1.847S8.346 13.5 11 13.5s4.393-1.143 4.393-1.143a1.38 1.39 0 0 0 .422-1.847l-1.81-3.157-1.81-3.158a1.38 1.39 0 0 0-1.13-.693z"/><path style="fill:#5dc062" d="M11.065 3.002a1.38 1.39 0 0 0-1.26.693l-1.81 3.158-1.81 3.157a1.38 1.39 0 0 0 .422 1.847S8.346 13 11 13s4.393-1.143 4.393-1.143a1.38 1.39 0 0 0 .422-1.847l-1.81-3.157-1.81-3.158a1.38 1.39 0 0 0-1.13-.693z"/><path style="opacity:.2" d="M10 11.5a1 1 0 0 1-1 1 1 1 0 0 1-1-1 1 1 0 0 1 1-1 1 1 0 0 1 1 1zM11 1.5c-.36.005-.618.23-.739.603l.005-.017-.567 1.465H8.276a.768.768 0 0 0-.579.3c-.313.373-.247.81.151 1.087l1.003 1.137-.583 1.376a.813.813 0 0 0 .217.835l.005.005a.754.754 0 0 0 .969.062L11 7.2l1.541 1.153a.754.754 0 0 0 .969-.062l.005-.005a.813.813 0 0 0 .219-.829l-.002-.006-.583-1.376 1.003-1.137c.398-.278.464-.714.15-1.087a.768.768 0 0 0-.59-.3H12.3l-.567-1.465.005.017c-.121-.373-.378-.598-.739-.603z"/><path style="fill:#ae3030" d="M11 1c-.36.005-.618.23-.739.602l.005-.016-.567 1.464H8.276a.768.768 0 0 0-.579.3c-.313.374-.247.81.151 1.088l1.003 1.137-.583 1.375a.813.813 0 0 0 .217.835l.005.005a.754.754 0 0 0 .969.062L11 6.7l1.541 1.152a.754.754 0 0 0 .969-.062l.005-.004a.813.813 0 0 0 .219-.83l-.002-.006-.583-1.375 1.003-1.137c.398-.278.464-.714.15-1.087a.768.768 0 0 0-.59-.3H12.3l-.567-1.465.005.016C11.618 1.23 11.36 1.005 11 1z"/><path style="fill:#ffe15e" d="M10 11a1 1 0 0 1-1 1 1 1 0 0 1-1-1 1 1 0 0 1 1-1 1 1 0 0 1 1 1z"/><path style="opacity:.2" d="M15 14.5a1 1 0 0 1-1 1 1 1 0 0 1-1-1 1 1 0 0 1 1-1 1 1 0 0 1 1 1z"/><path style="fill:#ffe15e" d="M15 14a1 1 0 0 1-1 1 1 1 0 0 1-1-1 1 1 0 0 1 1-1 1 1 0 0 1 1 1z"/><path style="opacity:.2" d="M9 19.5a1 1 0 0 1-1 1 1 1 0 0 1-1-1 1 1 0 0 1 1-1 1 1 0 0 1 1 1z"/><path style="fill:#ffe15e" d="M9 19a1 1 0 0 1-1 1 1 1 0 0 1-1-1 1 1 0 0 1 1-1 1 1 0 0 1 1 1z"/><path style="opacity:.2" d="M13 11a.5.5 0 0 1-.5.5.5.5 0 0 1-.5-.5.5.5 0 0 1 .5-.5.5.5 0 0 1 .5.5z"/><path style="fill:#ffe15e" d="M13 10.5a.5.5 0 0 1-.5.5.5.5 0 0 1-.5-.5.5.5 0 0 1 .5-.5.5.5 0 0 1 .5.5z"/><path style="opacity:.2" d="M11 16a.5.5 0 0 1-.5.5.5.5 0 0 1-.5-.5.5.5 0 0 1 .5-.5.5.5 0 0 1 .5.5z"/><path style="fill:#ffe15e" d="M11 15.5a.5.5 0 0 1-.5.5.5.5 0 0 1-.5-.5.5.5 0 0 1 .5-.5.5.5 0 0 1 .5.5z"/><path style="opacity:.2" d="M14 19a.5.5 0 0 1-.5.5.5.5 0 0 1-.5-.5.5.5 0 0 1 .5-.5.5.5 0 0 1 .5.5z"/><path style="fill:#ffe15e" d="M14 18.5a.5.5 0 0 1-.5.5.5.5 0 0 1-.5-.5.5.5 0 0 1 .5-.5.5.5 0 0 1 .5.5z"/><path style="opacity:.2" d="M8 14a.5.5 0 0 1-.5.5.5.5 0 0 1-.5-.5.5.5 0 0 1 .5-.5.5.5 0 0 1 .5.5z"/><path style="fill:#ffe15e" d="M8 13.5a.5.5 0 0 1-.5.5.5.5 0 0 1-.5-.5.5.5 0 0 1 .5-.5.5.5 0 0 1 .5.5z"/><path style="opacity:.2" d="M17 18a.5.5 0 0 1-.5.5.5.5 0 0 1-.5-.5.5.5 0 0 1 .5-.5.5.5 0 0 1 .5.5z"/><path style="fill:#ffe15e" d="M17 17.5a.5.5 0 0 1-.5.5.5.5 0 0 1-.5-.5.5.5 0 0 1 .5-.5.5.5 0 0 1 .5.5z"/><path style="opacity:.2;fill:#fff" d="M11 1c-.36.005-.618.23-.738.602l.004-.016-.567 1.465H8.29a.767.767 0 0 0-.592.3c-.2.239-.228.499-.13.731a.846.846 0 0 1 .13-.23.767.767 0 0 1 .592-.301H9.7l.567-1.465-.004.018c.12-.373.377-.599.738-.604.36.005.617.231.738.604l-.004-.018.567 1.465h1.424a.767.767 0 0 1 .578.3.846.846 0 0 1 .13.231c.098-.232.07-.492-.13-.73a.767.767 0 0 0-.592-.301H12.3l-.567-1.465.004.016c-.12-.373-.377-.597-.738-.602zM8.707 5.914l-.44 1.037-.001.006a.818.818 0 0 0 .007.482l.579-1.363-.145-.162zm4.586 0-.145.162.579 1.363a.818.818 0 0 0 .007-.482l-.002-.006-.44-1.037z"/></svg>
